X:1
T:Dusty Windowsills
L:1/8
Q:1/4=160
M:6/8
K:G
A z A z z A | c z c z z c | G z G z z G | E z E z z E |
 A z A z z A | c z c z z c | G z G z z G |E z E z z A ::
 z6 | z6 | z6 | z6 |
 z6 | z6 | z6 | z6 ::
 A z A z A z | c z c z c z |G z G z G z | E z E z E z |
 A z A z A z | c z c z c z | G z G z G z | E z E z E z ::
